X:1
T:Sleep, My Little Jesus
T:Sleep, My Little Jesus
C:Adam Geibel
Z:All Rights Reserved
L:1/8
M:6/8
K:G
V:1 treble nm="Piano" snm="Pno."
%%MIDI program 0
V:1
"G""^Gently" B2 B"D7" B2 B |"Am7" A3"Em" G3 |"G" d2 d"Bm7" d2 c |"G" B3- B3 |"E" e2 e"E7" e2 d | %5
w: Sleep, my lit- tle|Je- sus,|On Thy bed of|hay, _|While the shep- herds|
w: Sleep, my lit- tle|Je- sus,|While Thou art my|own! _|Ox and ass Thy|
w: Sleep, my lit- tle|Je- sus,|Won- der- ba- by|mine! _|Well the sing- ing|
"Am" d3 c3 |"A7" B2 A A2 E |"D7" A3- A3 |"G" B2 B"D7" (A>B)c |"G" B3 d2 D | B2 B"D7" (A>B)c | %11
w: home- ward|Jour- ney on their|way. _|Mo- ther is- * Thy|shep- herd And|will her vig- * gil|
w: neigh- bors,|Shalt Thou have a|throne? _|Will they call _ me|bless- ed? *|Shall I stand _ and|
w: an- gels|Greet Thee as di-|vine. _|Thru my heart, _ as|heav- en *|Low the ech- * oes|
"G" d3- d2 D |"G7" G2 G (G>B)d |"C" e3"Am" A2 B | d2 c"Bm" B2 A |"G" G3"D7" (A>B)c | %16
w: keep; _ _|Did the voi- * ces|wake thee? O|sleep, my Je- sus|sleep! Soft- * ly|
w: weep? _ _|Be it far, _ Je-|ho- vah! *|||
w: sweep _ Of|glo- ry to _ Je-|ho- bah! *|||
"G" B3"D7" (A>B)c |"G" d3"G7" G3 |"C" G3"Cm6" G3 |"G" B6- | B3 z z2 |] %21
w: sleep, sweet- * ly|sleep! My|Je- sus,|sleep!|_|
w: |||||
w: |||||

